bernoullicharts/arctan_x_two-coin_special_case__bound.svg

<?xml version="1.0" encoding="utf-8" standalone="no"?>
<!DOCTYPE svg PUBLIC "-//W3C//DTD SVG 1.1//EN"
  "http://www.w3.org/Graphics/SVG/1.1/DTD/svg11.dtd">
<!-- Created with matplotlib (https://matplotlib.org/) -->
<svg height="345.6pt" version="1.1" viewBox="0 0 460.8 345.6" width="460.8pt" xmlns="http://www.w3.org/2000/svg" xmlns:xlink="http://www.w3.org/1999/xlink">
 <defs>
  <style type="text/css">
*{stroke-linecap:butt;stroke-linejoin:round;}
  </style>
 </defs>
 <g id="figure_1">
  <g id="patch_1">
   <path d="M 0 345.6 
L 460.8 345.6 
L 460.8 0 
L 0 0 
z
" style="fill:#ffffff;"/>
  </g>
  <g id="axes_1">
   <g id="patch_2">
    <path d="M 57.6 307.584 
L 414.72 307.584 
L 414.72 41.472 
L 57.6 41.472 
z
" style="fill:#ffffff;"/>
   </g>
   <g id="matplotlib.axis_1">
    <g id="xtick_1">
     <g id="line2d_1">
      <defs>
       <path d="M 0 0 
L 0 3.5 
" id="m9a215dc675" style="stroke:#000000;stroke-width:0.8;"/>
      </defs>
      <g>
       <use style="stroke:#000000;stroke-width:0.8;" x="73.800255" xlink:href="#m9a215dc675" y="307.584"/>
      </g>
     </g>
     <g id="text_1">
      <text style="font-family:DejaVu Sans;font-size:10px;font-style:normal;font-weight:normal;text-anchor:middle;" transform="rotate(-0, 73.800255, 322.182437)" x="73.800255" y="322.182437">0.0</text>
     </g>
    </g>
    <g id="xtick_2">
     <g id="line2d_2">
      <g>
       <use style="stroke:#000000;stroke-width:0.8;" x="138.744153" xlink:href="#m9a215dc675" y="307.584"/>
      </g>
     </g>
     <g id="text_2">
      <text style="font-family:DejaVu Sans;font-size:10px;font-style:normal;font-weight:normal;text-anchor:middle;" transform="rotate(-0, 138.744153, 322.182437)" x="138.744153" y="322.182437">0.2</text>
     </g>
    </g>
    <g id="xtick_3">
     <g id="line2d_3">
      <g>
       <use style="stroke:#000000;stroke-width:0.8;" x="203.688051" xlink:href="#m9a215dc675" y="307.584"/>
      </g>
     </g>
     <g id="text_3">
      <text style="font-family:DejaVu Sans;font-size:10px;font-style:normal;font-weight:normal;text-anchor:middle;" transform="rotate(-0, 203.688051, 322.182437)" x="203.688051" y="322.182437">0.4</text>
     </g>
    </g>
    <g id="xtick_4">
     <g id="line2d_4">
      <g>
       <use style="stroke:#000000;stroke-width:0.8;" x="268.631949" xlink:href="#m9a215dc675" y="307.584"/>
      </g>
     </g>
     <g id="text_4">
      <text style="font-family:DejaVu Sans;font-size:10px;font-style:normal;font-weight:normal;text-anchor:middle;" transform="rotate(-0, 268.631949, 322.182437)" x="268.631949" y="322.182437">0.6</text>
     </g>
    </g>
    <g id="xtick_5">
     <g id="line2d_5">
      <g>
       <use style="stroke:#000000;stroke-width:0.8;" x="333.575847" xlink:href="#m9a215dc675" y="307.584"/>
      </g>
     </g>
     <g id="text_5">
      <text style="font-family:DejaVu Sans;font-size:10px;font-style:normal;font-weight:normal;text-anchor:middle;" transform="rotate(-0, 333.575847, 322.182437)" x="333.575847" y="322.182437">0.8</text>
     </g>
    </g>
    <g id="xtick_6">
     <g id="line2d_6">
      <g>
       <use style="stroke:#000000;stroke-width:0.8;" x="398.519745" xlink:href="#m9a215dc675" y="307.584"/>
      </g>
     </g>
     <g id="text_6">
      <text style="font-family:DejaVu Sans;font-size:10px;font-style:normal;font-weight:normal;text-anchor:middle;" transform="rotate(-0, 398.519745, 322.182437)" x="398.519745" y="322.182437">1.0</text>
     </g>
    </g>
    <g id="text_7">
     <text style="font-family:DejaVu Sans;font-size:10px;font-style:normal;font-weight:normal;text-anchor:middle;" transform="rotate(-0, 236.16, 335.860562)" x="236.16" y="335.860562">Input Coin's Heads Probability (λ)</text>
    </g>
   </g>
   <g id="matplotlib.axis_2">
    <g id="ytick_1">
     <g id="line2d_7">
      <defs>
       <path d="M 0 0 
L -3.5 0 
" id="mece0db1763" style="stroke:#000000;stroke-width:0.8;"/>
      </defs>
      <g>
       <use style="stroke:#000000;stroke-width:0.8;" x="57.6" xlink:href="#mece0db1763" y="295.512782"/>
      </g>
     </g>
     <g id="text_8">
      <text style="font-family:DejaVu Sans;font-size:10px;font-style:normal;font-weight:normal;text-anchor:end;" transform="rotate(-0, 50.6, 299.312001)" x="50.6" y="299.312001">0.0</text>
     </g>
    </g>
    <g id="ytick_2">
     <g id="line2d_8">
      <g>
       <use style="stroke:#000000;stroke-width:0.8;" x="57.6" xlink:href="#mece0db1763" y="262.094994"/>
      </g>
     </g>
     <g id="text_9">
      <text style="font-family:DejaVu Sans;font-size:10px;font-style:normal;font-weight:normal;text-anchor:end;" transform="rotate(-0, 50.6, 265.894213)" x="50.6" y="265.894213">0.2</text>
     </g>
    </g>
    <g id="ytick_3">
     <g id="line2d_9">
      <g>
       <use style="stroke:#000000;stroke-width:0.8;" x="57.6" xlink:href="#mece0db1763" y="228.677207"/>
      </g>
     </g>
     <g id="text_10">
      <text style="font-family:DejaVu Sans;font-size:10px;font-style:normal;font-weight:normal;text-anchor:end;" transform="rotate(-0, 50.6, 232.476426)" x="50.6" y="232.476426">0.4</text>
     </g>
    </g>
    <g id="ytick_4">
     <g id="line2d_10">
      <g>
       <use style="stroke:#000000;stroke-width:0.8;" x="57.6" xlink:href="#mece0db1763" y="195.259419"/>
      </g>
     </g>
     <g id="text_11">
      <text style="font-family:DejaVu Sans;font-size:10px;font-style:normal;font-weight:normal;text-anchor:end;" transform="rotate(-0, 50.6, 199.058638)" x="50.6" y="199.058638">0.6</text>
     </g>
    </g>
    <g id="ytick_5">
     <g id="line2d_11">
      <g>
       <use style="stroke:#000000;stroke-width:0.8;" x="57.6" xlink:href="#mece0db1763" y="161.841632"/>
      </g>
     </g>
     <g id="text_12">
      <text style="font-family:DejaVu Sans;font-size:10px;font-style:normal;font-weight:normal;text-anchor:end;" transform="rotate(-0, 50.6, 165.64085)" x="50.6" y="165.64085">0.8</text>
     </g>
    </g>
    <g id="ytick_6">
     <g id="line2d_12">
      <g>
       <use style="stroke:#000000;stroke-width:0.8;" x="57.6" xlink:href="#mece0db1763" y="128.423844"/>
      </g>
     </g>
     <g id="text_13">
      <text style="font-family:DejaVu Sans;font-size:10px;font-style:normal;font-weight:normal;text-anchor:end;" transform="rotate(-0, 50.6, 132.223063)" x="50.6" y="132.223063">1.0</text>
     </g>
    </g>
    <g id="ytick_7">
     <g id="line2d_13">
      <g>
       <use style="stroke:#000000;stroke-width:0.8;" x="57.6" xlink:href="#mece0db1763" y="95.006057"/>
      </g>
     </g>
     <g id="text_14">
      <text style="font-family:DejaVu Sans;font-size:10px;font-style:normal;font-weight:normal;text-anchor:end;" transform="rotate(-0, 50.6, 98.805275)" x="50.6" y="98.805275">1.2</text>
     </g>
    </g>
    <g id="ytick_8">
     <g id="line2d_14">
      <g>
       <use style="stroke:#000000;stroke-width:0.8;" x="57.6" xlink:href="#mece0db1763" y="61.588269"/>
      </g>
     </g>
     <g id="text_15">
      <text style="font-family:DejaVu Sans;font-size:10px;font-style:normal;font-weight:normal;text-anchor:end;" transform="rotate(-0, 50.6, 65.387488)" x="50.6" y="65.387488">1.4</text>
     </g>
    </g>
    <g id="text_16">
     <text style="font-family:DejaVu Sans;font-size:10px;font-style:normal;font-weight:normal;text-anchor:middle;" transform="rotate(-90, 28.617187, 174.528)" x="28.617187" y="174.528">Coin Flips Needed</text>
    </g>
   </g>
   <g id="line2d_15">
    <path clip-path="url(#p26ab841d10)" d="M 73.832727 128.423848 
L 77.112066 128.452868 
L 80.391405 128.538993 
L 83.670744 128.682446 
L 86.950083 128.883367 
L 90.229421 129.14182 
L 93.50876 129.457783 
L 96.788099 129.831157 
L 100.067438 130.26176 
L 103.346777 130.749335 
L 106.626116 131.293546 
L 109.905455 131.893978 
L 113.184793 132.550148 
L 116.464132 133.261495 
L 119.743471 134.027391 
L 123.02281 134.847141 
L 126.302149 135.719985 
L 129.581488 136.645101 
L 132.860826 137.621608 
L 136.140165 138.64857 
L 139.419504 139.725 
L 142.698843 140.849861 
L 145.978182 142.022072 
L 149.257521 143.240509 
L 152.53686 144.504013 
L 155.816198 145.811391 
L 159.095537 147.161417 
L 162.374876 148.552841 
L 165.654215 149.984392 
L 168.933554 151.454778 
L 172.212893 152.962693 
L 175.492231 154.506821 
L 178.77157 156.085836 
L 182.050909 157.698411 
L 185.330248 159.343215 
L 188.609587 161.018924 
L 191.888926 162.724218 
L 195.168264 164.457784 
L 198.447603 166.218327 
L 201.726942 168.004561 
L 205.006281 169.815222 
L 208.28562 171.649066 
L 211.564959 173.504871 
L 214.844298 175.381441 
L 218.123636 177.277608 
L 221.402975 179.192233 
L 224.682314 181.124209 
L 227.961653 183.072463 
L 231.240992 185.035957 
L 234.520331 187.013688 
L 237.799669 189.004695 
L 241.079008 191.008052 
L 244.358347 193.022877 
L 247.637686 195.048327 
L 250.917025 197.083605 
L 254.196364 199.127955 
L 257.475702 201.180666 
L 260.755041 203.241072 
L 264.03438 205.308555 
L 267.313719 207.38254 
L 270.593058 209.462501 
L 273.872397 211.547959 
L 277.151736 213.638483 
L 280.431074 215.73369 
L 283.710413 217.833248 
L 286.989752 219.93687 
L 290.269091 222.044322 
L 293.54843 224.155419 
L 296.827769 226.270027 
L 300.107107 228.388061 
L 303.386446 230.50949 
L 306.665785 232.634334 
L 309.945124 234.762665 
L 313.224463 236.894609 
L 316.503802 239.030348 
L 319.78314 241.170115 
L 323.062479 243.314203 
L 326.341818 245.46296 
L 329.621157 247.616794 
L 332.900496 249.776173 
L 336.179835 251.941626 
L 339.459174 254.113745 
L 342.738512 256.29319 
L 346.017851 258.480687 
L 349.29719 260.677034 
L 352.576529 262.883102 
L 355.855868 265.099838 
L 359.135207 267.328271 
L 362.414545 269.569514 
L 365.693884 271.824768 
L 368.973223 274.095331 
L 372.252562 276.382597 
L 375.531901 278.688068 
L 378.81124 281.013358 
L 382.090579 283.360201 
L 385.369917 285.73046 
L 388.649256 288.126138 
L 391.928595 290.549384 
L 395.207934 293.00251 
L 398.487273 295.488 
" style="fill:none;stroke:#1f77b4;stroke-linecap:square;stroke-width:1.5;"/>
   </g>
   <g id="line2d_16">
    <path clip-path="url(#p26ab841d10)" d="M 73.832727 72.950317 
L 77.112066 73.618673 
L 80.391405 67.937649 
L 83.670744 69.608538 
L 86.950083 78.297163 
L 90.229421 71.279427 
L 93.50876 67.603471 
L 96.788099 59.249024 
L 100.067438 68.606004 
L 103.346777 77.962985 
L 106.626116 65.598404 
L 109.905455 76.292096 
L 113.184793 70.276894 
L 116.464132 67.603471 
L 119.743471 61.922447 
L 123.02281 61.588269 
L 126.302149 60.585735 
L 129.581488 66.600937 
L 132.860826 61.254091 
L 136.140165 69.608538 
L 139.419504 61.922447 
L 142.698843 63.593336 
L 145.978182 56.241423 
L 149.257521 68.940182 
L 152.53686 60.919913 
L 155.816198 63.593336 
L 159.095537 66.600937 
L 162.374876 63.593336 
L 165.654215 59.91738 
L 168.933554 61.254091 
L 172.212893 56.575601 
L 175.492231 60.919913 
L 178.77157 54.904712 
L 182.050909 58.24649 
L 185.330248 77.962985 
L 188.609587 67.603471 
L 191.888926 58.24649 
L 195.168264 67.269293 
L 198.447603 54.236356 
L 201.726942 68.940182 
L 205.006281 61.922447 
L 208.28562 78.631341 
L 211.564959 70.611072 
L 214.844298 73.95285 
L 218.123636 53.568 
L 221.402975 67.269293 
L 224.682314 58.914846 
L 227.961653 65.598404 
L 231.240992 59.91738 
L 234.520331 74.621206 
L 237.799669 59.91738 
L 241.079008 68.606004 
L 244.358347 74.955384 
L 247.637686 72.616139 
L 250.917025 73.95285 
L 254.196364 70.94525 
L 257.475702 70.94525 
L 260.755041 76.960451 
L 264.03438 63.593336 
L 267.313719 75.957918 
L 270.593058 69.942716 
L 273.872397 72.616139 
L 277.151736 76.626273 
L 280.431074 67.269293 
L 283.710413 66.935115 
L 286.989752 71.947783 
L 290.269091 70.94525 
L 293.54843 74.955384 
L 296.827769 72.281961 
L 300.107107 67.603471 
L 303.386446 70.611072 
L 306.665785 73.95285 
L 309.945124 73.284495 
L 313.224463 81.304764 
L 316.503802 79.968052 
L 319.78314 76.292096 
L 323.062479 75.957918 
L 326.341818 88.322499 
L 329.621157 82.307297 
L 332.900496 76.626273 
L 336.179835 88.990855 
L 339.459174 87.319965 
L 342.738512 90.995922 
L 346.017851 90.327566 
L 349.29719 81.973119 
L 352.576529 90.995922 
L 355.855868 85.314898 
L 359.135207 83.978187 
L 362.414545 84.646542 
L 365.693884 88.990855 
L 368.973223 86.317432 
L 372.252562 84.646542 
L 375.531901 94.337701 
L 378.81124 86.65161 
L 382.090579 87.654143 
L 385.369917 89.659211 
L 388.649256 87.654143 
L 391.928595 85.649076 
L 395.207934 88.322499 
L 398.487273 97.67948 
" style="fill:none;stroke:#ff7f0e;stroke-linecap:square;stroke-width:1.5;"/>
   </g>
   <g id="patch_3">
    <path d="M 57.6 307.584 
L 57.6 41.472 
" style="fill:none;stroke:#000000;stroke-linecap:square;stroke-linejoin:miter;stroke-width:0.8;"/>
   </g>
   <g id="patch_4">
    <path d="M 414.72 307.584 
L 414.72 41.472 
" style="fill:none;stroke:#000000;stroke-linecap:square;stroke-linejoin:miter;stroke-width:0.8;"/>
   </g>
   <g id="patch_5">
    <path d="M 57.6 307.584 
L 414.72 307.584 
" style="fill:none;stroke:#000000;stroke-linecap:square;stroke-linejoin:miter;stroke-width:0.8;"/>
   </g>
   <g id="patch_6">
    <path d="M 57.6 41.472 
L 414.72 41.472 
" style="fill:none;stroke:#000000;stroke-linecap:square;stroke-linejoin:miter;stroke-width:0.8;"/>
   </g>
   <g id="text_17">
    <text style="font-family:DejaVu Sans;font-size:12px;font-style:normal;font-weight:normal;text-anchor:middle;" transform="rotate(-0, 236.16, 35.472)" x="236.16" y="35.472">Coin Flips for arctan(x)</text>
   </g>
   <g id="legend_1">
    <g id="patch_7">
     <path d="M 64.6 302.584 
L 359.996875 302.584 
Q 361.996875 302.584 361.996875 300.584 
L 361.996875 272.22775 
Q 361.996875 270.22775 359.996875 270.22775 
L 64.6 270.22775 
Q 62.6 270.22775 62.6 272.22775 
L 62.6 300.584 
Q 62.6 302.584 64.6 302.584 
z
" style="fill:#ffffff;opacity:0.8;stroke:#cccccc;stroke-linejoin:miter;"/>
    </g>
    <g id="line2d_17">
     <path d="M 66.6 278.326187 
L 86.6 278.326187 
" style="fill:none;stroke:#1f77b4;stroke-linecap:square;stroke-width:1.5;"/>
    </g>
    <g id="line2d_18"/>
    <g id="text_18">
     <text style="font-family:DejaVu Sans;font-size:10px;font-style:normal;font-weight:normal;text-anchor:start;" transform="rotate(-0, 94.6, 281.826187)" x="94.6" y="281.826187">Coin Flip Lower Bound (Mendo)</text>
    </g>
    <g id="line2d_19">
     <path d="M 66.6 293.004312 
L 86.6 293.004312 
" style="fill:none;stroke:#ff7f0e;stroke-linecap:square;stroke-width:1.5;"/>
    </g>
    <g id="line2d_20"/>
    <g id="text_19">
     <text style="font-family:DejaVu Sans;font-size:10px;font-style:normal;font-weight:normal;text-anchor:start;" transform="rotate(-0, 94.6, 296.504312)" x="94.6" y="296.504312">Avg. Coins Flipped arctan(x) (Two-Coin Special Case)</text>
    </g>
   </g>
  </g>
 </g>
 <defs>
  <clipPath id="p26ab841d10">
   <rect height="266.112" width="357.12" x="57.6" y="41.472"/>
  </clipPath>
 </defs>
</svg>

<svg height="460.8" viewBox="0 0 460.8 345.6" width="614.4" xmlns="http://www.w3.org/2000/svg" xmlns:xlink="http://www.w3.org/1999/xlink"><defs><style>*{stroke-linecap:butt;stroke-linejoin:round}</style></defs><g id="figure_1"><path d="M0 345.6h460.8V0H0z" fill="#fff" id="patch_1"/><g id="axes_1"><path d="M57.6 307.584h357.12V41.472H57.6z" fill="#fff" id="patch_2"/><g id="matplotlib.axis_1"><g id="xtick_1"><g id="line2d_1"><defs><path d="M0 0v3.5" id="m9a215dc675" stroke="#000" stroke-width=".8"/></defs><use x="73.8" xlink:href="#m9a215dc675" y="307.584" stroke="#000" stroke-width=".8"/></g><text x="73.8" y="322.182" font-family="DejaVu Sans" font-size="10" font-weight="400" text-anchor="middle" id="text_1">0.0</text></g><g id="xtick_2"><use x="138.744" xlink:href="#m9a215dc675" y="307.584" stroke="#000" stroke-width=".8" id="line2d_2"/><text x="138.744" y="322.182" font-family="DejaVu Sans" font-size="10" font-weight="400" text-anchor="middle" id="text_2">0.2</text></g><g id="xtick_3"><use x="203.688" xlink:href="#m9a215dc675" y="307.584" stroke="#000" stroke-width=".8" id="line2d_3"/><text x="203.688" y="322.182" font-family="DejaVu Sans" font-size="10" font-weight="400" text-anchor="middle" id="text_3">0.4</text></g><g id="xtick_4"><use x="268.632" xlink:href="#m9a215dc675" y="307.584" stroke="#000" stroke-width=".8" id="line2d_4"/><text x="268.632" y="322.182" font-family="DejaVu Sans" font-size="10" font-weight="400" text-anchor="middle" id="text_4">0.6</text></g><g id="xtick_5"><use x="333.576" xlink:href="#m9a215dc675" y="307.584" stroke="#000" stroke-width=".8" id="line2d_5"/><text x="333.576" y="322.182" font-family="DejaVu Sans" font-size="10" font-weight="400" text-anchor="middle" id="text_5">0.8</text></g><g id="xtick_6"><use x="398.52" xlink:href="#m9a215dc675" y="307.584" stroke="#000" stroke-width=".8" id="line2d_6"/><text x="398.52" y="322.182" font-family="DejaVu Sans" font-size="10" font-weight="400" text-anchor="middle" id="text_6">1.0</text></g><text x="236.16" y="335.861" font-family="DejaVu Sans" font-size="10" font-weight="400" text-anchor="middle" id="text_7">Input Coin&apos;s Heads Probability (λ)</text></g><g id="matplotlib.axis_2"><g id="ytick_1"><g id="line2d_7"><defs><path d="M0 0h-3.5" id="mece0db1763" stroke="#000" stroke-width=".8"/></defs><use x="57.6" xlink:href="#mece0db1763" y="295.513" stroke="#000" stroke-width=".8"/></g><text x="50.6" y="299.312" font-family="DejaVu Sans" font-size="10" font-weight="400" text-anchor="end" id="text_8">0.0</text></g><g id="ytick_2"><use x="57.6" xlink:href="#mece0db1763" y="262.095" stroke="#000" stroke-width=".8" id="line2d_8"/><text x="50.6" y="265.894" font-family="DejaVu Sans" font-size="10" font-weight="400" text-anchor="end" id="text_9">0.2</text></g><g id="ytick_3"><use x="57.6" xlink:href="#mece0db1763" y="228.677" stroke="#000" stroke-width=".8" id="line2d_9"/><text x="50.6" y="232.476" font-family="DejaVu Sans" font-size="10" font-weight="400" text-anchor="end" id="text_10">0.4</text></g><g id="ytick_4"><use x="57.6" xlink:href="#mece0db1763" y="195.259" stroke="#000" stroke-width=".8" id="line2d_10"/><text x="50.6" y="199.059" font-family="DejaVu Sans" font-size="10" font-weight="400" text-anchor="end" id="text_11">0.6</text></g><g id="ytick_5"><use x="57.6" xlink:href="#mece0db1763" y="161.842" stroke="#000" stroke-width=".8" id="line2d_11"/><text x="50.6" y="165.641" font-family="DejaVu Sans" font-size="10" font-weight="400" text-anchor="end" id="text_12">0.8</text></g><g id="ytick_6"><use x="57.6" xlink:href="#mece0db1763" y="128.424" stroke="#000" stroke-width=".8" id="line2d_12"/><text x="50.6" y="132.223" font-family="DejaVu Sans" font-size="10" font-weight="400" text-anchor="end" id="text_13">1.0</text></g><g id="ytick_7"><use x="57.6" xlink:href="#mece0db1763" y="95.006" stroke="#000" stroke-width=".8" id="line2d_13"/><text x="50.6" y="98.805" font-family="DejaVu Sans" font-size="10" font-weight="400" text-anchor="end" id="text_14">1.2</text></g><g id="ytick_8"><use x="57.6" xlink:href="#mece0db1763" y="61.588" stroke="#000" stroke-width=".8" id="line2d_14"/><text x="50.6" y="65.387" font-family="DejaVu Sans" font-size="10" font-weight="400" text-anchor="end" id="text_15">1.4</text></g><text transform="rotate(-90 28.617 174.528)" x="28.617" y="174.528" font-family="DejaVu Sans" font-size="10" font-weight="400" text-anchor="middle" id="text_16">Coin Flips Needed</text></g><path clip-path="url(#p26ab841d10)" d="M73.833 128.424l3.28.029 3.278.086 3.28.143 3.28.201 3.278.259 3.28.316 3.28.373 3.278.43 3.28.488 3.28.545 3.278.6 3.28.656 3.28.711 3.278.766 3.28.82 3.28.873 3.278.925 3.28.977 3.28 1.027 3.279 1.076 3.279 1.125 3.28 1.172 3.279 1.219 3.279 1.263 3.28 1.307 3.279 1.35 3.279 1.392 3.28 1.431 3.279 1.47 3.279 1.509 3.28 1.544 3.279 1.579 3.279 1.612 3.28 1.645 3.279 1.676 3.279 1.705 3.28 1.734 3.279 1.76 3.279 1.787 3.28 1.81 3.279 1.834 3.279 1.856 3.28 1.876 3.279 1.897 3.279 1.914 3.28 1.932 3.279 1.948 3.279 1.964 3.28 1.978 3.279 1.99 3.279 2.004 3.28 2.015 3.279 2.025 3.279 2.036 3.28 2.044 3.279 2.053 3.279 2.06 3.28 2.068 3.279 2.074 3.28 2.08 3.278 2.085 3.28 2.09 3.28 2.096 3.278 2.1 3.28 2.103 3.28 2.107 3.278 2.111 3.28 2.115 3.28 2.118 3.278 2.121 3.28 2.125 3.28 2.129 3.278 2.132 3.28 2.135 3.28 2.14 3.278 2.144 3.28 2.149 3.28 2.154 3.278 2.16 3.28 2.165 3.28 2.172 3.279 2.18 3.279 2.187 3.28 2.196 3.279 2.206 3.279 2.217 3.28 2.228 3.279 2.242 3.279 2.255 3.28 2.27 3.279 2.288 3.279 2.305 3.28 2.325 3.279 2.347 3.279 2.37 3.28 2.396 3.279 2.423 3.279 2.454 3.28 2.485" fill="none" stroke="#1f77b4" stroke-linecap="square" stroke-width="1.5" id="line2d_15"/><path clip-path="url(#p26ab841d10)" d="M73.833 72.95l3.28.669 3.278-5.681 3.28 1.67 3.28 8.69 3.278-7.019 3.28-3.676 3.28-8.354 3.278 9.357 3.28 9.357 3.28-12.365 3.278 10.694 3.28-6.015 3.28-2.674 3.278-5.68 3.28-.335 3.28-1.002 3.278 6.015 3.28-5.347 3.28 8.355 3.279-7.687 3.279 1.671 3.28-7.352 3.279 12.7 3.279-8.021 3.28 2.673 3.279 3.008 3.279-3.008 3.28-3.676 3.279 1.337 3.279-4.678 3.28 4.344 3.279-6.015 3.279 3.341 3.28 19.717 3.279-10.36 3.279-9.357 3.28 9.023 3.279-13.033 3.279 14.704 3.28-7.018 3.279 16.71 3.279-8.02 3.28 3.34 3.279-20.384 3.279 13.701 3.28-8.354 3.279 6.683 3.279-5.68 3.28 14.703 3.279-14.704 3.279 8.689 3.28 6.35 3.279-2.34 3.279 1.337 3.28-3.008h3.279l3.279 6.015 3.28-13.367 3.279 12.365 3.28-6.015 3.278 2.673 3.28 4.01 3.28-9.357 3.278-.334 3.28 5.013 3.28-1.003 3.278 4.01 3.28-2.673 3.28-4.679 3.278 3.008 3.28 3.342 3.28-.669 3.278 8.02 3.28-1.336 3.28-3.676 3.278-.334 3.28 12.364 3.28-6.015 3.278-5.68 3.28 12.364 3.28-1.671 3.279 3.676 3.279-.668 3.28-8.355 3.279 9.023 3.279-5.681 3.28-1.337 3.279.669 3.279 4.344 3.28-2.674 3.279-1.67 3.279 9.69 3.28-7.685 3.279 1.002 3.279 2.005 3.28-2.005 3.279-2.005 3.279 2.673 3.28 9.357" fill="none" stroke="#ff7f0e" stroke-linecap="square" stroke-width="1.5" id="line2d_16"/><path d="M57.6 307.584V41.472" fill="none" stroke="#000" stroke-linecap="square" stroke-width=".8" id="patch_3"/><path d="M414.72 307.584V41.472" fill="none" stroke="#000" stroke-linecap="square" stroke-width=".8" id="patch_4"/><path d="M57.6 307.584h357.12" fill="none" stroke="#000" stroke-linecap="square" stroke-width=".8" id="patch_5"/><path d="M57.6 41.472h357.12" fill="none" stroke="#000" stroke-linecap="square" stroke-width=".8" id="patch_6"/><text x="236.16" y="35.472" font-family="DejaVu Sans" font-size="12" font-weight="400" text-anchor="middle" id="text_17">Coin Flips for arctan(x)</text><g id="legend_1"><path d="M64.6 302.584h295.397q2 0 2-2v-28.356q0-2-2-2H64.6q-2 0-2 2v28.356q0 2 2 2z" fill="#fff" opacity=".8" stroke="#ccc" id="patch_7"/><path d="M66.6 278.326h20" fill="none" stroke="#1f77b4" stroke-linecap="square" stroke-width="1.5" id="line2d_17"/><text x="94.6" y="281.826" font-family="DejaVu Sans" font-size="10" font-weight="400" id="text_18">Coin Flip Lower Bound (Mendo)</text><path d="M66.6 293.004h20" fill="none" stroke="#ff7f0e" stroke-linecap="square" stroke-width="1.5" id="line2d_19"/><text x="94.6" y="296.504" font-family="DejaVu Sans" font-size="10" font-weight="400" id="text_19">Avg. Coins Flipped arctan(x) (Two-Coin Special Case)</text></g></g></g><defs><clipPath id="p26ab841d10"><path d="M57.6 41.472h357.12v266.112H57.6z"/></clipPath></defs></svg>
